svgs/light/beer-mug-empty.svg

<svg xmlns="http://www.w3.org/2000/svg" viewBox="0 0 512 512"><!-- Font Awesome Pro 6.0.0-alpha2 by @fontawesome - https://fontawesome.com License - https://fontawesome.com/license (Commercial License) --><path d="M144 128C135.156 128 128 135.156 128 144V368C128 376.844 135.156 384 144 384S160 376.844 160 368V144C160 135.156 152.844 128 144 128ZM272 128C263.156 128 256 135.156 256 144V368C256 376.844 263.156 384 272 384S288 376.844 288 368V144C288 135.156 280.844 128 272 128ZM208 128C199.156 128 192 135.156 192 144V368C192 376.844 199.156 384 208 384S224 376.844 224 368V144C224 135.156 216.844 128 208 128ZM432 96H384V80C384 53.49 362.51 32 336 32H80C53.49 32 32 53.49 32 80V384C32 437.02 74.98 480 128 480H288C341.02 480 384 437.02 384 384V377.891L467.781 336C495.062 322.359 512 294.953 512 264.453V176C512 131.891 476.125 96 432 96ZM352 384C352 419.289 323.291 448 288 448H128C92.711 448 64 419.289 64 384V80C64 71.178 71.178 64 80 64H336C344.822 64 352 71.178 352 80V384ZM480 264.453C480 282.75 469.844 299.188 453.469 307.375L384 342.109V128H432C458.469 128 480 149.531 480 176V264.453Z"/></svg>

<svg xmlns="http://www.w3.org/2000/svg" viewBox="0 0 512 512"><!--! Font Awesome Pro 6.3.0 by @fontawesome - https://fontawesome.com License - https://fontawesome.com/license (Commercial License) Copyright 2023 Fonticons, Inc. --><path d="M144 128C135.2 128 128 135.2 128 144v224C128 376.8 135.2 384 144 384S160 376.8 160 368v-224C160 135.2 152.8 128 144 128zM272 128C263.2 128 256 135.2 256 144v224c0 8.844 7.156 16 16 16s16-7.156 16-16v-224C288 135.2 280.8 128 272 128zM208 128C199.2 128 192 135.2 192 144v224C192 376.8 199.2 384 208 384S224 376.8 224 368v-224C224 135.2 216.8 128 208 128zM432 96H384V80C384 53.49 362.5 32 336 32h-256C53.49 32 32 53.49 32 80V384c0 53.02 42.98 96 96 96h160c53.02 0 96-43.06 96-96.08V377.9L467.8 336C495.1 322.4 512 294.1 512 264.5V176C512 131.9 476.1 96 432 96zM352 384c0 35.29-28.71 64-64 64H128c-35.29 0-64-28.71-64-64V80C64 71.18 71.18 64 80 64h256C344.8 64 352 71.18 352 80V384zM480 264.5c0 18.3-10.16 34.73-26.53 42.92L384 342.1V128h48C458.5 128 480 149.5 480 176V264.5z"/></svg>
